assets/svg/bell.svg

<svg fill="none" height="24" viewBox="0 0 24 24" width="24" xmlns="http://www.w3.org/2000/svg"><path d="m15.0002 19c0 1.6569-1.3431 3-3 3-1.6568 0-2.99995-1.3431-2.99995-3m4.79655-12.76144c.4354-.44992.7034-1.06294.7034-1.73856 0-1.38071-1.1192-2.5-2.5-2.5-1.3807 0-2.49995 1.11929-2.49995 2.5 0 .67562.268 1.28864.70345 1.73856m-7.65663 2.0844c-.01435-1.45135.76813-2.80665 2.03221-3.5199m16.87412 3.5199c.0144-1.45135-.7681-2.80665-2.0322-3.5199m-1.421 6.39694c0-1.37913-.6321-2.70177-1.7573-3.67696-1.1252-.97518-2.6514-1.52304-4.2427-1.52304s-3.11737.54786-4.24259 1.52304c-1.12522.97519-1.75736 2.29783-1.75736 3.67696 0 2.2818-.56587 3.9506-1.27194 5.1447-.80472 1.3609-1.20709 2.0414-1.1912 2.2039.01818.186.05165.2447.20248.355.13183.0964.79417.0964 2.11885.0964h12.28366c1.3246 0 1.987 0 2.1188-.0964.1508-.1103.1843-.169.2025-.355.0159-.1625-.3865-.843-1.1912-2.2039-.7061-1.1941-1.272-2.8629-1.272-5.1447z" stroke="#000" stroke-linecap="round" stroke-linejoin="round" stroke-width="2"/></svg>

<svg width="24" height="24" viewBox="0 0 24 24" fill="none" xmlns="http://www.w3.org/2000/svg">
<path d="M15.0002 19C15.0002 20.6569 13.6571 22 12.0002 22C10.3434 22 9.00025 20.6569 9.00025 19M13.7968 6.23856C14.2322 5.78864 14.5002 5.17562 14.5002 4.5C14.5002 3.11929 13.381 2 12.0002 2C10.6195 2 9.50025 3.11929 9.50025 4.5C9.50025 5.17562 9.76825 5.78864 10.2037 6.23856M2.54707 8.32296C2.53272 6.87161 3.3152 5.51631 4.57928 4.80306M21.4534 8.32296C21.4678 6.87161 20.6853 5.51631 19.4212 4.80306M18.0002 11.2C18.0002 9.82087 17.3681 8.49823 16.2429 7.52304C15.1177 6.54786 13.5915 6 12.0002 6C10.4089 6 8.88283 6.54786 7.75761 7.52304C6.63239 8.49823 6.00025 9.82087 6.00025 11.2C6.00025 13.4818 5.43438 15.1506 4.72831 16.3447C3.92359 17.7056 3.52122 18.3861 3.53711 18.5486C3.55529 18.7346 3.58876 18.7933 3.73959 18.9036C3.87142 19 4.53376 19 5.85844 19H18.1421C19.4667 19 20.1291 19 20.2609 18.9036C20.4117 18.7933 20.4452 18.7346 20.4634 18.5486C20.4793 18.3861 20.0769 17.7056 19.2722 16.3447C18.5661 15.1506 18.0002 13.4818 18.0002 11.2Z" stroke="black" stroke-width="2" stroke-linecap="round" stroke-linejoin="round"/>
</svg>
